X: 31016
T: Pad The Road Wi Me
R: slide
M: 12/8
K: Amajor
e e2 c c2 BB A4|B A2e e2 c B4 c|BA2 a a2g g2 f f2|eec cd2 c B4 c||
B A2 a a2g g2 f f2|eec c d2 c B4|e e2 c c2 BB A4|B c2e e2 c A5||

